X:2255
T:My hene whooinney shenn 
C:Traditional
O:Isle of Man
Z:Mona melodies No 7. Clague collection. Also collected by A.W.Moore
B:Kiaull Vannin #255 
M:2/4 
L:1/8 
Q:200 
K:D 
A|d2 d2|d2 D2|DE FG|A2 A2|d2 d2|d2 d2|e2 fg|g2 f2| 
e3 e|e2 e2|e2 d2|dc BA|A2 GF|G2 AB|A2 dc|d3|| 

